!!!!SEGMENT: pl-wn--mus-iii-601--005-002_janiewicz-feliks--ve-trio-le-chant-des-juifs.krn
!!!cenid: 17xx:2400
!!!COM: Janiewicz, Feliks
!!!COM-rismid: pe30011012
!!!CDT:
!!!CNT:
!!!OPR: Ve Trio
!!!OTL: le Chant des Juifs
!!!OMV: 002
!!!PDT:
!!!AGN:
!!!SMS-siglum: PL-Wn
!!!SMS-shelfmark: Mus.III.601
!!!SMS-shelfwork: 005-002 M
!!!SMS-variant:
!!!SMS-altvar:
!!!NIFC-rismid: 990069598
!!!URL-scan: https://polona.pl/item/six-trios-pour-deux-violons-basse,MTAxMDA3MzY2/0/#item
!!!ONB-nifc: UWAGA: źródło zawiera 6 Trio na 2 skrzypiec i wiolonczelę. Violino Primo (od skanu 3), Violino Secondo (od skanu 37), Basso (od skanu 61). Basso to partia wiolonczeli. Części Ie Trio: 1. Allegro, 2. Le Chant des Juifs (2 cz. razem attacca)
!!!AIN: 1 cello 2 violn
!!!key: E
**kern	**dynam	**kern	**dynam	**kern	**dynam
*part3	*part3	*part2	*part2	*part1	*part1
*staff3	*	*staff2	*	*staff1	*
*I"BASSO	*	*I"VIOLINO SECONDO	*	*I"VIOLINO PRIMO	*
*I'vlc	*	*I'vl II	*	*I'vl I	*
*ICstr	*	*ICstr	*	*ICstr	*
*Icello	*	*Ivioln	*	*Ivioln	*
*clefF4	*	*clefG2	*	*clefG2	*
*k[f#c#g#d#]	*	*k[f#c#g#d#]	*	*k[f#c#g#d#]	*
*E:	*	*E:	*	*E:	*
*M4/4	*	*M4/4	*	*M4/4	*
*met(c)	*	*met(c)	*	*met(c)	*
!	!	!	!	!LO:TX:a:B:t=le Chant des Juifs	!
!LO:TX:a:B:t=Introduzzione \nAndante.	!	!LO:TX:a:B:t=Introduzzione \nAndante.	!	!LO:TX:a:B:t=Introduzzione \nAndante.	!
4r	.	4r	.	4e/	.
=1	=1	=1	=1	=1	=1
!	!	!	!LO:DY:b:t=F	!	!
4e\	.	4g#/	f	4b\	.
4e\	.	4g#/	.	4b\	.
4e\	.	4g#/	.	4b\	.
4e\	.	4a/	.	4cc#\	.
=2	=2	=2	=2	=2	=2
.	.	.	.	16qqb/LL	.
.	.	.	.	16qqcc#/	.
.	.	.	.	16qqdd#/JJ	.
[2e\	.	8.a/L	.	8.cc#\L	.
.	.	16g#/Jk	.	16b\Jk	.
.	.	2g#/	.	2b\	.
4e\]	.	.	.	.	.
4r	.	4r	.	4r	.
=3	=3	=3	=3	=3	=3
4E\	.	4B/ 4g#	.	8.b\L	.
.	.	.	.	16g#\Jk	.
4r	.	4r	.	8.ee\L	.
.	.	.	.	16b\Jk	.
2r	.	2r	.	16.gg#\LL	.
.	.	.	.	32ee\K	.
.	.	.	.	16.bb\	.
.	.	.	.	32gg#\JJk	.
.	.	.	.	16.ee\LL	.
.	.	.	.	32b\K	.
.	.	.	.	16.gg#\	.
.	.	.	.	32ee\JJk	.
=4	=4	=4	=4	=4	=4
2r	.	2r	.	16.b/LL	.
.	.	.	.	32g#/K	.
.	.	.	.	16.ee/	.
.	.	.	.	32b/JJk	.
.	.	.	.	16.g#/LL	.
.	.	.	.	32e/K	.
.	.	.	.	16.ee/	.
.	.	.	.	32dd#/JJk	.
2E\	p	2a/	p	4dd#\	.
.	.	.	.	8qqdd#/	.
.	.	.	.	8cc#\L	.
.	.	.	.	16b\L	.
.	.	.	.	16cc#\JJ	.
!	!	!	!	!LO:LB:g=original	!
=5	=5	=5	=5	=5	=5
4EE/	.	[2g#/	.	[2b\	.
4E\	.	.	.	.	.
4E\	.	4g#/]	.	4b\]	.
4r	.	4r	.	8r	.
.	.	.	.	16g#/LL	.
.	.	.	.	16a/JJ	.
=6	=6	=6	=6	=6	=6
*	*	*	*	*Xtuplet	*
8E\	p	8g#/	.	(24b/LL	.
.	.	.	.	24cc#/	.
.	.	.	.	24b/	.
8r	.	8r	.	24a/	.
.	.	.	.	24g#/	.
.	.	.	.	24a/JJ)	.
8E\	.	8g#/	.	(24b/LL	.
.	.	.	.	24cc#/	.
.	.	.	.	24b/	.
8r	.	8r	.	24a/	.
.	.	.	.	24g#/	.
.	.	.	.	24a/JJ)	.
8E\	.	8g#/	.	(24b/LL	.
.	.	.	.	24cc#/	.
.	.	.	.	24b/	.
8r	.	8r	.	24a/	.
.	.	.	.	24g#/	.
.	.	.	.	24a/JJ)	.
8E\	.	8g#/	.	(24b/LL	.
.	.	.	.	24cc#/	.
.	.	.	.	24b/	.
8r	.	8r	.	24a/	.
.	.	.	.	24g#/	.
.	.	.	.	24a/JJ)	.
=7	=7	=7	=7	=7	=7
4E\	.	4g#/	.	16b'/LL	.
.	.	.	.	16g#'/	.
.	.	.	.	16a'/	.
.	.	.	.	16b'/JJ	.
4r	.	4r	.	16cc#'\LL	.
.	.	.	.	16dd#'\	.
.	.	.	.	16ee'\	.
.	.	.	.	16ff#'\JJ	.
16r	.	16r	.	[2gg#\	.
16E\LL	.	16g#/LL	.	.	.
16D#\	.	16f#/	.	.	.
16C#\JJ	.	16e/JJ	.	.	.
16BB/LL	.	16d#/LL	.	.	.
16AA/	.	16c#/	.	.	.
16GG#/	.	16B/	.	.	.
16FF#/JJ	.	16A/JJ	.	.	.
!LO:LB:g=original	!	!LO:LB:g=original	!	!	!
=8	=8	=8	=8	=8	=8
4EE/	.	4G#/	.	8.gg#\L]	.
.	.	.	.	16ee\Jk	.
4r	.	4r	.	8.b/L	.
.	.	.	.	16g#/Jk	.
4E\	.	4G#/ 4g#	.	8.ee\L	.
.	.	.	.	16b\Jk	.
4r	.	4r	.	8g#/L	.
.	.	.	.	(16e/L	.
.	.	.	.	16cc#/JJ)	.
=9	=9	=9	=9	=9	=9
4E\	.	8r	.	2b\	.
.	.	8B/L 8g#	.	.	.
4r	.	8B/ 8g#	.	.	.
.	.	8B/J 8g#	.	.	.
4BB/	.	8r	.	2aT</	.
.	.	8B/L 8f#	.	.	.
4D#/	.	8B/ 8f#	.	.	.
.	.	8B/J 8f#	.	.	.
!	!	!	!	!LO:LB:g=original	!
=10	=10	=10	=10	=10	=10
4E\	.	4r	.	[2g#/	.
4EE/	.	4B/	.	.	.
4EE/	.	4B/	.	4g#/]	.
4r	.	4r	.	8r	p
.	.	.	.	(16e/LL	.
.	.	.	.	16f#/JJ)	.
=11	=11	=11	=11	=11	=11
8E\L	.	8r	.	8g#'/L	.
8G#\	.	8B/L	.	8g#'/	.
8B\	.	8e/	.	8g#'/	.
8G#\J	.	8e/J	.	8g#'/J	.
*	*	*	*	*tremolo	*
!	!	!	!	!LO:TX:t=P:problem: 4x staccato	!LO:HP:b:t=cres
8E\L	.	[2e/	.	16g#'/LL	<
.	.	.	.	16g#'/	.
8e\	.	.	.	16g#'/	.
.	.	.	.	16g#'/JJ	.
8B\	.	.	.	16g#'/LL	.
.	.	.	.	16g#'/	.
8G#\J	.	.	.	16g#'/	.
.	.	.	.	16g#'/JJ	.
=12	=12	=12	=12	=12	=12
!	!	!	!	!	!LO:HP:b:t=cen
4.E\	.	2e/]	.	(32g#/LLL	<
.	.	.	.	32a/	.
.	.	.	.	32g#/	.
.	.	.	.	32f#/JJ)	.
.	.	.	.	8e'/J	.
.	.	.	.	(32g#/LLL	.
.	.	.	.	32a/	.
.	.	.	.	32g#/	.
!	!	!	!	!	!LO:HP:b:t=do
.	.	.	.	32f#/JJ)	<
8D#\	.	.	.	8e'/J	.
4.C#/	.	4.e/	.	(32g#/LLL	.
.	.	.	.	32a/	.
.	.	.	.	32g#/	.
.	.	.	.	32f#/JJ)	.
.	.	.	.	8e'/J	.
.	.	.	.	(32g#/LLL	.
.	.	.	.	32a/	.
.	.	.	.	32g#/	.
.	.	.	.	32f#/JJ)	.
8AA#X/	.	8c#/	.	8e'/J	.
=13	=13	=13	=13	=13	=13
2BB/	.	4.e/	.	(4.g#/	.
.	.	8d#/	.	24f#/LL	.
.	.	.	.	24a/	.
.	.	.	.	24g#/JJ	.
4BB;/	.	4d#;/	.	4f#;/)	.
4r	.	4r	.	8r	.
.	.	.	.	16e/LL	.
.	.	.	.	16g#/JJ	.
=14	=14	=14	=14	=14	=14
!	!	!	!	!LO:TX:t=P:problem: 4x staccato	!
4E\	.	8r	.	8b'\L	.
.	.	8bb\L	.	8b'\	.
4r	.	8gg#\	>	8b'\	.
.	.	8ee\J	.	8b'\J	.
!	!	!	!	!LO:TX:t=P:problem: 4x staccato	!
2r	.	8b/L	.	16b'\LL	.
.	.	.	.	16b'\	.
.	.	8g#/	.	16b'\	.
.	.	.	.	16b'\JJ	.
!	!	!	!	!LO:TX:t=P:problem: 4x staccato	!
.	.	8e/	.	16b'\LL	.
.	.	.	.	16b'\	.
.	.	8B/J	]	16b'\	.
.	.	.	.	16b'\JJ	.
*	*	*	*	*Xtremolo	*
!	!	!LO:LB:g=original	!	!LO:LB:g=original	!
=15	=15	=15	=15	=15	=15
8r	.	8r	.	(40a#X/LLL	.
.	.	.	.	40b/	.
.	.	.	.	40cc#/	.
.	.	.	.	40b/)	.
.	.	.	.	40a#'/JJ	.
8e\	.	8gn/	p	8a#'/J	.
8r	.	8r	.	(40a#/LLL	.
.	.	.	.	40b/	.
.	.	.	.	40cc#/	.
.	.	.	.	40b/)	.
.	.	.	.	40a#'/JJ	.
8e\	.	8g/	.	8a#'/J	.
8r	.	8r	.	(40b\LLL	.
.	.	.	.	40cc#\	.
.	.	.	.	40ddn\	.
.	.	.	.	40cc#\)	.
.	.	.	.	40b'\JJ	.
8dn\	.	8f#/	.	8b'\J	.
8r	.	8r	.	(40b\LLL	.
.	.	.	.	40cc#\	.
.	.	.	.	40dd\	.
.	.	.	.	40cc#\)	.
.	.	.	.	40b'\JJ	.
8d\	.	8f#/	.	8b'\J	.
=16	=16	=16	=16	=16	=16
8r	.	8r	.	(40a#X/LLL	.
.	.	.	.	40b/	.
.	.	.	.	40cc#/	.
.	.	.	.	40b/)	.
.	.	.	.	40a#'/JJ	.
8e\	.	8gn/	.	8a#'/J	.
8r	.	8r	.	(40a#/LLL	.
.	.	.	.	40b/	.
.	.	.	.	40cc#/	.
.	.	.	.	40b/)	.
.	.	.	.	40a#'/JJ	.
8e\	.	8g/	.	8a#'/J	.
8r	.	8r	.	(40b\LLL	.
.	.	.	.	40cc#\	.
.	.	.	.	40ddn\	.
.	.	.	.	40cc#\)	.
.	.	.	.	40b'\JJ	.
8dn\	.	8f#/	.	8b'\J	.
8r	.	8r	.	(40b\LLL	.
.	.	.	.	40cc#\	.
.	.	.	.	40dd\	.
.	.	.	.	40cc#\)	.
.	.	.	.	40b'\JJ	.
8d\	.	8f#/	.	8b'\J	.
!LO:LB:g=original	!	!	!	!	!
=17	=17	=17	=17	=17	=17
.	.	.	.	(>8qqb/	.
8r	.	8r	.	2ff#\	.
8Dn\L	.	8B/L 8f#	.	.	.
8D\	.	8B/ 8f#	.	.	.
8D\J	.	8B/J 8f#	.	.	.
4D\	.	4B/ 4f#	.	8ff#\L)	.
.	.	.	.	(8cc#\	.
4r	.	4r	.	8ddn\)	.
.	.	.	.	(<8a#X\J	.
!	!	!	!	!LO:LB:g=original	!
=18	=18	=18	=18	=18	=18
8r	.	8r	.	8b/L)	.
(8D#X\L	.	8B/L	.	(8f#/J	.
8E\)	.	8B/	.	[4gn/)	.
8E'\J	.	8B/J	.	.	.
4E\	.	4B/	.	8g/L]	.
.	.	.	.	(8g/	.
4r	.	4r	.	8a/	.
.	.	.	.	8b/J)	.
=19	=19	=19	=19	=19	=19
8r	.	8r	.	(8b/L	.
8Dn\L	.	8B/L	.	8f#/J)	.
8D\	.	8B/	.	2f#/	.
8D\J	.	8B/J	.	.	.
4D\	.	4B/	.	.	.
.	.	.	.	8qqa/	.
4r	.	4r	.	(8.gn/L	.
.	.	.	.	16f#/Jk)	.
=20	=20	=20	=20	=20	=20
1Cn;	.	4B/	.	[4e/	.
.	.	8.cn/L	.	8.e/L]	.
.	.	16B/Jk	.	16f#/Jk	.
.	.	2A#X;/	.	4gn;/	.
.	.	.	.	(16qqf#/LL	.
.	.	.	.	16qqg/	.
.	.	.	.	16qqf#/	.
.	.	.	.	16qqg/	.
.	.	.	.	16qqf#/	.
.	.	.	.	16qqa/	.
.	.	.	.	16qqg/JJ)	.
.	.	.	.	8.f#/L	.
.	.	.	.	16e/Jk	.
=21	=21	=21	=21	=21	=21
!	!	!LO:TX:b:t=s'attacca il	!	!	!
1BB;	.	1B; 1f#	.	4.d#X/	.
.	.	.	.	(40c#/LLL	.
.	.	.	.	40B/	.
.	.	.	.	40d#;/	.
.	.	.	.	40c#/	.
.	.	.	.	40B/JJJ	.
.	.	.	.	2B/)	.
!	!	!LO:LB:g=original	!	!	!
=22||	=22||	=22||	=22||	=22||	=22||
*	*	*	*	*clefG2	*
*k[f#]	*	*k[f#]	*	*k[f#]	*
*e:	*	*e:	*	*e:	*
*M2/4	*	*M2/4	*	*M2/4	*
!LO:TX:B:a:t=s'attacca il Rondo All|t|t|o.	!	!LO:TX:a:B:t=Rondo All|t|t|o.	!	!LO:TX:a:B:t=s'attacca il Rondo All|t|t|o.	!
4r	.	4r	.	8b\L	.
.	.	.	.	8b\J	.
=23	=23	=23	=23	=23	=23
4E\	.	4g/ 4b	p	8ee\L	.
.	.	.	.	16ee\L	.
.	.	.	.	16gg\JJ	.
.	.	.	.	8qqgg/	.
8D#X/L	.	8a/L	.	8ff#\L	.
8BB/J	.	8b/J	.	16ff#\L	.
.	.	.	.	16dd#X\JJ	.
!	!	!	!	!LO:LB:g=original	!
=24	=24	=24	=24	=24	=24
8E\	.	8g/ 8b	.	8ee\L	.
8r	.	8r	.	16gg\L	.
.	.	.	.	16bb\JJ	.
4r	.	4r	.	8b\L	.
.	.	.	.	16cc\L	.
.	.	.	.	16dd#X\JJ	.
=25	=25	=25	=25	=25	=25
8E\	.	8g/ 8b	.	8ee\L	.
8r	.	8r	.	16ee\L	.
.	.	.	.	16gg\JJ	.
.	.	.	.	8qqgg/	.
8D#X/L	.	8a/L	.	8ff#\L	.
8BB/J	.	8b/J	.	16ff#\L	.
.	.	.	.	16dd#X\JJ	.
=26	=26	=26	=26	=26	=26
!LO:TX:t=P:problem:mixed beam	!	!	!	!	!
8E\L	.	8g/L	.	4ee\	.
8EE/J	.	8b/	.	.	.
4r	.	8cc/	.	16ddn\LL	.
.	.	.	.	16ee\	.
.	.	8dn/J	.	16ff#\	.
.	.	.	.	16dd\JJ	.
=27	=27	=27	=27	=27	=27
!LO:TX:a:t=1	!	!	!	!	!
2r	.	8b/L	.	8gg\L	.
.	.	8d/	.	16gg\L	.
.	.	.	.	16bb\JJ	.
.	.	.	.	8qqbb/	.
.	.	8cc/	.	8aa\L	.
.	.	8d/J	.	16aa\L	.
.	.	.	.	16ff#\JJ	.
=28	=28	=28	=28	=28	=28
8r	.	8b/L	.	8gg\L	.
!	!LO:HP:b:t=cres	!	!LO:HP:b:t=cres	!	!LO:HP:b:t=cres
8G\L	<	8d/	<	16gg\L	<
.	.	.	.	16bb\JJ	.
.	.	.	.	8qqbb/	.
8F#\	.	8cc/	.	8aa\L	.
8D\J	.	8d/J	.	16aa\L	.
.	.	.	.	16ff#\JJ	.
!LO:LB:g=original	!	!	!	!	!
=29	=29	=29	=29	=29	=29
!	!	!	!LO:DY:b:t=F	!	!LO:DY:b:t=F
8GG/L	.	4d/ 4b	f	8gg\L	f
8G\	.	.	.	16bb\L	.
.	.	.	.	16ddd\JJ	.
8F#\	.	8d/L 8cc	.	8dd\L	.
8D\J	.	8d/J 8cc	.	16ee\L	.
.	.	.	.	16ff#\JJ	.
=30	=30	=30	=30	=30	=30
8G\L	.	4d/ 4b	.	4gg\	.
8GG/J	.	.	.	.	.
4r	.	4r	.	8b\L	p
.	.	.	.	8b\J	.
=31	=31	=31	=31	=31	=31
8e\	p	8g/ 8b	p	8ee\L	.
8r	.	8r	.	16ee\L	.
.	.	.	.	16gg\JJ	.
.	.	.	.	8qqgg/	.
8d#X\L	.	8a/L	.	8ff#\L	.
8B\J	.	8b/J	.	16ff#\L	.
.	.	.	.	16dd#X\JJ	.
!	!	!	!	!LO:LB:g=original	!
=32	=32	=32	=32	=32	=32
8e\	.	8g/ 8b	.	8ee\L	.
8r	.	8r	.	16gg\L	.
.	.	.	.	16bb\JJ	.
4r	.	4r	.	8b\L	.
.	.	.	.	16cc\L	.
.	.	.	.	16dd#X\JJ	.
!	!	!LO:LB:g=original	!	!	!
=33	=33	=33	=33	=33	=33
8e\	.	8g/L	.	8ee\L	.
8r	.	8b/	.	16ee\L	.
.	.	.	.	16gg\JJ	.
8d#X\L	.	8a/	.	8ff#\L	.
8B\J	.	8b/J	.	16ff#\L	.
.	.	.	.	16dd#X\JJ	.
=34	=34	=34	=34	=34	=34
8e\L	.	8g/L	.	4ee\	.
8E\J	.	8b/	.	.	.
4r	.	8cc/	.	16ddn\LL	.
.	.	.	.	16ee\	.
.	.	8a/J	.	16ff#\	.
.	.	.	.	16dd\JJ	.
=35	=35	=35	=35	=35	=35
[2D\	<	16b\LL	.	8gg\L	.
.	.	16cc\	.	.	.
.	.	16dd\	.	16gg\L	.
.	.	16b\JJ	.	16bb\JJ	.
.	.	.	.	8qqbb/	.
.	.	4cc\	.	8aa\L	.
.	.	.	.	16aa\L	.
.	.	.	.	16ff#\JJ	.
=36	=36	=36	=36	=36	=36
2D\]	[[	8b/L	.	8gg\L	.
!	!	!	!LO:HP:b:t=cres	!	!
.	.	8g/	<	16gg\L	.
.	.	.	.	16bb\JJ	.
.	.	.	.	8qqbb/	.
.	.	8f#/	.	8aa\L	.
.	.	8cc/J	.	16aa\L	.
.	.	.	.	16ff#\JJ	.
=37	=37	=37	=37	=37	=37
!	!	!	!LO:DY:b:t=F	!	!
8r	.	4d/ 4b	f	8gg\L	.
!	!LO:DY:b:t=F	!	!	!	!
8G\L	f	.	.	16bb\L	.
.	.	.	.	16ddd\JJ	.
8F#\	.	8d/L 8cc	.	8dd\L	.
8D\J	.	8d/J 8cc	.	16ee\L	.
.	.	.	.	16ff#\JJ	.
=38	=38	=38	=38	=38	=38
8G\L	.	4d/ 4b	.	4gg\	.
8GG/J	.	.	.	.	.
4r	.	4r	.	8bb\L	p
.	.	.	.	16bb\L	.
.	.	.	.	16aa\JJ	.
=39	=39	=39	=39	=39	=39
8B\L	p	4r	.	8gg\L	.
16B\L	.	.	.	16gg\L	.
16A\JJ	.	.	.	16ff#\JJ	.
8G\L	.	8b/L	p	8ee\L	.
16G\L	.	16b/L	.	16ee\L	.
16F#\JJ	.	16a/JJ	.	16dd#X\JJ	.
!	!	!	!	!LO:LB:g=original	!
=40	=40	=40	=40	=40	=40
4E\	.	8g/L	.	8ee\L	.
.	.	8g/J	.	8b\J	.
4BB/	.	8f#/L	.	16dd#X\LL	.
.	.	.	.	16ee\	.
.	.	8a/J	.	16ff#\	.
.	.	.	.	16dd#\JJ	.
=41	=41	=41	=41	=41	=41
4E\	.	4g/	.	16ee\LL	.
.	.	.	.	16dd#X\	.
.	.	.	.	16ee\	.
.	.	.	.	16ff#\JJ	.
4r	.	4r	.	16gg\LL	.
.	.	.	.	16ff#\	.
.	.	.	.	16gg\	.
.	.	.	.	16bb\JJ	.
=42	=42	=42	=42	=42	=42
8BB/L	.	8d#X/L	.	4b\ 4ff#	.
8B\J	.	8d#/J	.	.	.
!	!	!	!LO:DY:b:t=F	!	!
4r	.	8b/L	f	4r	.
.	.	16b/L	.	.	.
.	.	16a/JJ	.	.	.
!LO:LB:g=original	!	!LO:LB:g=original	!	!	!
=43	=43	=43	=43	=43	=43
!	!	!	!	!	!LO:DY:b:t=F
4r	.	8g/L	.	8bb\L	f
.	.	16g/L	.	16bb\L	.
.	.	16f#/JJ	.	16aa\JJ	.
!	!LO:DY:b:t=F	!	!	!	!
8B\L	f	8e/L	.	8gg\L	.
16B\L	.	16e/L	.	16gg\L	.
16A\JJ	.	16d#X/JJ	.	16ff#\JJ	.
=44	=44	=44	=44	=44	=44
8G\L	.	8e/L	.	8ee\L	.
8E\	.	8g/	.	8b\J	.
8F#\	.	8a/	.	16dd#X\LL	.
.	.	.	.	16ee\	.
8A\J	.	8cc/J	.	16ff#\	.
.	.	.	.	16dd#\JJ	.
=45	=45	=45	=45	=45	=45
8G\L	.	8b\	.	16ee\LL	.
.	.	.	.	16ff#\	.
8E\	.	4ee\	.	16gg\	.
.	.	.	.	16bb\JJ	.
.	.	.	.	8qqgg/	.
8B\	.	.	.	16ff#\LL	.
.	.	.	.	16ee\	.
8BB\J	.	8dd#X\	.	16ff#\	.
.	.	.	.	16gg\JJ	.
=46	=46	=46	=46	=46	=46
!LO:TX:t=P:problem:mixed beam	!	!	!	!	!
8E\L	.	4ee\	.	4ee\	.
8EE/J	.	.	.	.	.
4r	.	4r	.	8bb\L	p
.	.	.	.	16bb\L	.
.	.	.	.	16aa\JJ	.
=47	=47	=47	=47	=47	=47
8B\L	p	4r	.	8gg\L	.
16B\L	.	.	.	16gg\L	.
16A\JJ	.	.	.	16ff#\JJ	.
8G\L	.	8b/L	p	8ee\L	.
16G\L	.	16b/L	.	16ee\L	.
16F#\JJ	.	16a/JJ	.	16dd#X\JJ	.
!	!	!	!	!LO:LB:g=original	!
=48	=48	=48	=48	=48	=48
4E\	.	8g/L	.	8ee\L	.
.	.	8g/J	.	8b\J	.
4BB/	.	8f#/L	.	16dd#X\LL	.
.	.	.	.	16ee\	.
!	!	!LO:TX:t=P:problem: X zapisany ołówkiem w źródle	!	!	!
!	!	!LO:TX:a:t=X:color=grey	!	!	!
.	.	8a/J	.	16ff#\	.
.	.	.	.	16dd#\JJ	.
=49	=49	=49	=49	=49	=49
4E\	.	4g/	.	16ee\LL	.
.	.	.	.	16dd#X\	.
.	.	.	.	16ee\	.
.	.	.	.	16ff#\JJ	.
4r	.	4r	.	16gg\LL	.
.	.	.	.	16ff#\	.
.	.	.	.	16gg\	.
.	.	.	.	16bb\JJ	.
=50	=50	=50	=50	=50	=50
8B\L	.	8d#X/L	.	4b\ 4ff#	.
8BB/J	.	8d#/J	.	.	.
!	!LO:DY:b:t=F	!	!	!	!
8B\L	f	4r	.	4r	.
16B\L	.	.	.	.	.
16A\JJ	.	.	.	.	.
=51	=51	=51	=51	=51	=51
!	!	!	!LO:DY:b:t=F	!	!
8G\L	.	8b/L	f	4r	.
16G\L	.	16b/L	.	.	.
16F#\JJ	.	16a/JJ	.	.	.
!	!	!	!	!	!LO:DY:b:t=F
8E\L	.	8g/L	.	8ee\L	f
8F#\J	.	8a/J	.	16ee\L	.
.	.	.	.	16dd#X\JJ	.
=52	=52	=52	=52	=52	=52
!	!	!LO:TX:t=P:problem:mixed beam	!	!	!
4G\	.	8b\L	.	8ee\L	.
.	.	8B/J	.	8b\J	.
!	!	!LO:TX:t=P:problem:mixed beam	!	!	!
4A\	.	8cn/L	.	16dd#X\LL	.
.	.	.	.	16ee\	.
.	.	8cc\J	.	16ff#\	.
.	.	.	.	16dd#\JJ	.
!	!	!LO:LB:g=original	!	!	!
=53	=53	=53	=53	=53	=53
8G\L	.	8b\	.	16ee\LL	.
.	.	.	.	16ff#\	.
8E\	.	4ee\	.	16gg\	.
.	.	.	.	16bb\JJ	.
.	.	.	.	8qqgg/	.
8B\	.	.	.	16ff#\LL	.
.	.	.	.	16ee\	.
8BB\J	.	8dd#X\	.	16ff#\	.
.	.	.	.	16gg\JJ	.
=54	=54	=54	=54	=54	=54
16r	.	16r	.	2ee\	p
16E\LL	.	16g/LL	.	.	.
16F#\	.	16a/	.	.	.
16G\JJ	.	16b/JJ	.	.	.
16A\LL	.	16cc/LL	.	.	.
16G\	.	16b/	.	.	.
16F#\	.	16a/	.	.	.
16E\JJ	.	16g/JJ	.	.	.
!LO:LB:g=original	!	!	!	!	!
=55	=55	=55	=55	=55	=55
4D#X\	.	2f#/ 2a	.	(16ff#\LL	.
.	.	.	.	16ccc\	.
.	.	.	.	16bb\	.
.	.	.	.	16aa\JJ	.
4BB/	.	.	.	16gg\LL	.
.	.	.	.	16ff#\	.
.	.	.	.	16ee\	.
.	.	.	.	16dd#X\JJ)	.
=56	=56	=56	=56	=56	=56
16r	.	16r	.	2ee\	.
(16E\LL	.	16g/LL	.	.	.
16F#\	.	16a/	.	.	.
16G\JJ	.	16b/JJ	.	.	.
16A\LL	.	16cc/LL	.	.	.
16G\	.	16b/	.	.	.
16F#\	.	16a/	.	.	.
16E\JJ)	.	16g/JJ	.	.	.
!	!	!	!	!LO:LB:g=original	!
=57	=57	=57	=57	=57	=57
4D#X\	.	2f#/ 2a	.	(16ff#\LL	.
.	.	.	.	16ccc\	.
.	.	.	.	16bb\	.
.	.	.	.	16aa\JJ	.
4BB/	.	.	.	16gg\LL	.
.	.	.	.	16ff#\	.
.	.	.	.	16ee\	.
.	.	.	.	16dd#X\JJ)	.
=58	=58	=58	=58	=58	=58
8E\	.	8g/ 8b	.	8ee\	.
8r	.	8r	.	8r	.
8EE/	.	8b\	.	8eee\	.
8r	.	8r	.	8r	.
=59	=59	=59	=59	=59	=59
8E\	.	8b\	.	8ee\	.
8r	.	8r	.	8r	.
4r	.	4r	.	8gg#X\L 8bb	.
.	.	.	.	8gg#\J 8bb	.
=60	=60	=60	=60	=60	=60
*k[f#c#g#d#]	*	*k[f#c#g#d#]	*	*k[f#c#g#d#]	*
*E:	*	*E:	*	*E:	*
!LO:TX:a:B:t=Majeur	!LO:DY:b:t=F	!LO:TX:a:B:t=Majeur	!	!LO:TX:b:B:t=Majeur	!LO:DY:b:t=F
8E'\L	f	8r	.	4gg#\ 4bb	f
!	!	!	!LO:DY:b:t=F	!	!
8G#'\	.	8b\	f	.	.
8BB'\	.	4f#/ 4a	.	16ff#\LL 16aa	.
.	.	.	.	16ee\ 16gg#	.
8D#'\J	.	.	.	16ff#\ 16aa	.
.	.	.	.	16gg#\JJ 16bb	.
=61	=61	=61	=61	=61	=61
!LO:TX:t=P:problem:mixed beam	!	!	!	!	!
8E'\L	.	4g#/	.	4ee\ 4gg#	.
8EE'/J	.	.	.	.	.
4r	.	4r	.	8b\L 8gg#	.
.	.	.	.	8b\J 8gg#	.
=62	=62	=62	=62	=62	=62
8E\L	.	4e/	.	4b\ 4gg#	.
8G#\	.	.	.	.	.
8BB\	.	8d#/L	.	16a\LL 16ff#	.
.	.	.	.	16g#\ 16ee	.
8D#\J	.	[8B/J	.	16a\ 16ff#	.
.	.	.	.	16b\JJ 16gg#	.
=63	=63	=63	=63	=63	=63
4E\	.	16B/LL]	.	2g#\ [2ee	.
.	.	16e/	.	.	.
.	.	16g#/	.	.	.
.	.	16b/JJ	.	.	.
4r	.	16ee\LL	.	.	.
.	.	16gg#\	.	.	.
.	.	16bb\	.	.	.
.	.	16gg#\JJ	.	.	.
=64	=64	=64	=64	=64	=64
8E/L	.	8bb\	.	16g#\LL 16ee]	.
.	.	.	.	(16g#\ 16b	.
8BB/	.	8r	.	16a\ 16cc#	.
.	.	.	.	16g#\JJ 16b	.
8D#/	.	8bb\L	.	16f#\LL) 16a	.
.	.	.	.	(16ff#\ 16aa	.
8BB/J	.	[8b\J	.	16gg#\ 16bb	.
.	.	.	.	16ff#\JJ) 16aa	.
!	!	!	!	!LO:LB:g=original	!
=65	=65	=65	=65	=65	=65
8E/L	.	8b\]	.	16ee\LL 16gg#	.
.	.	.	.	(16g#\ 16b	.
8BB/	.	8r	.	16a\ 16cc#	.
.	.	.	.	16g#\JJ 16b	.
8D#/	.	8bb\L	.	16f#\LL) 16a	.
.	.	.	.	(16ff#\ 16aa	.
8BB/J	.	[8b\J	.	16gg#\ 16bb	.
.	.	.	.	16ff#\JJ 16aa	.
=66	=66	=66	=66	=66	=66
!LO:TX:t=P:problem:mixed beam	!	!	!	!	!
8EE/L	.	8b\L]	.	16ee\LL) 16gg#	.
.	.	.	.	(16ee\ 16gg#	.
8E\	.	(16a\L	.	16ff#\ 16aa	.
.	.	16b\JJ)	.	16gg#\JJ 16bb	.
8E\	.	(16cc#\LL	.	16aa\LL 16ccc#	.
.	.	16b\	.	16gg#\ 16bb	.
8E\J	.	16a\	.	16ff#\ 16aa	.
.	.	16g#\JJ)	.	16ee\JJ) 16gg#	.
=67	=67	=67	=67	=67	=67
8BB/L	.	(8g#/L	.	(8ee\L 8gg#	.
8B\J	.	8f#/J)	.	8dd#\J) 8ff#	.
4r	.	4r	.	8gg#\L 8bb	p
.	.	.	.	8gg#\J 8bb	.
!LO:LB:g=original	!	!	!	!	!
=68	=68	=68	=68	=68	=68
!LO:TX:a:t=2	!	!	!	!	!
!LO:N:vis=0	!	!	!	!	!
1r	.	8e'/L	p	4gg#\ 4bb	.
.	.	8g#'/	.	.	.
.	.	8B'/	.	16ff#\LL 16aa	.
.	.	.	.	16ee\ 16gg#	.
.	.	8d#'/J	.	16ff#\ 16aa	.
.	.	.	.	16gg#\JJ 16bb	.
=69	=69	=69	=69	=69	=69
.	.	4e/	.	4ee\ 4gg#	.
.	.	4r	.	8b\L 8gg#	.
.	.	.	.	8b\J 8gg#	.
=70	=70	=70	=70	=70	=70
8E\L	p	4ee\	.	4b\ 4gg#	.
8G#\	.	.	.	.	.
8B\	.	8dd#\L	.	16a\LL 16ff#	.
.	.	.	.	16g#\ 16ee	.
8BB/J	.	8b\J	.	16a\ 16ff#	.
.	.	.	.	16b\JJ 16gg#	.
!	!	!LO:LB:g=original	!	!	!
=71	=71	=71	=71	=71	=71
16r	.	16ee'\LL	.	2g#\ [2ee	.
16E'/LL	.	16gg#'\	.	.	.
16D#'/	.	16ff#'\	.	.	.
16C#'/JJ	.	16ee'\JJ	.	.	.
16BB'/LL	.	16dd#'\LL	.	.	.
16AA'/	.	16cc#'\	.	.	.
16GG#'/	.	16b'\	.	.	.
16FF#'/JJ	.	16a'\JJ	.	.	.
=72	=72	=72	=72	=72	=72
[2EE/	.	8g#'/L	.	16g#\LL 16ee]	.
.	.	.	.	(16g#\ 16b	.
.	.	8B'/	.	16a\ 16cc#	.
.	.	.	.	16g#\JJ 16b	.
.	.	8d#'/	.	16f#\LL) 16a	.
.	.	.	.	(16ff#\ 16aa	.
.	.	8B'/J	.	16gg#\ 16bb	.
.	.	.	.	16ff#\JJ 16aa	.
!	!	!	!	!LO:LB:g=original	!
=73	=73	=73	=73	=73	=73
2EE/_	.	8e'/L	.	16ee\LL) 16gg#	.
.	.	.	.	(16g#\ 16b	.
.	.	8B'/	.	16a\ 16cc#	.
.	.	.	.	16g#\JJ 16b	.
.	.	8d#'/	.	16f#\LL) 16a	.
.	.	.	.	(16ff#\ 16aa	.
.	.	8B'/J	.	16gg#\ 16bb	.
.	.	.	.	16ff#\JJ 16aa	.
=74	=74	=74	=74	=74	=74
8EE/L]	.	4B/	.	16ee\LL) 16gg#	.
.	.	.	.	(16ee\ 16gg#	.
8E/	.	.	.	16ff#\ 16aa	.
.	.	.	.	16gg#\JJ 16bb	.
8D#/	.	4r	.	16aa\LL 16ccc#	.
.	.	.	.	16gg#\ 16bb	.
8E/J	.	.	.	16ff#\ 16aa	.
.	.	.	.	16ee\JJ) 16gg#	.
=75	=75	=75	=75	=75	=75
!	!	!LO:TX:a:t=1	!	!	!
8BB/L	.	2r	.	(8ee\L 8gg#	.
8B\J	.	.	.	8dd#\J) 8ff#	.
!	!	!	!	!LO:TX:b:i:t=rinf	!
4r	.	.	.	8dd#\L 8ff#	.
.	.	.	.	8dd#\J 8ff#	.
=76	=76	=76	=76	=76	=76
16r	.	8r	.	4dd#\ [4ff#	.
!LO:TX:b:i:t=rinf	!	!	!	!	!
(16A#X\LL	.	.	.	.	.
16B\	.	8f#/L	.	.	.
16A#\JJ)	.	.	.	.	.
8B\	.	8d#/J	.	16dd#\LL 16ff#]	.
.	.	.	.	(16dd#\ 16ff#	.
8r	.	8r	.	16ee\ 16gg#	.
.	.	.	.	16ff#\JJ) 16aa	.
=77	=77	=77	=77	=77	=77
16r	.	8r	.	(8ff#\L 8aa	.
(16d#\LL	.	.	.	.	.
16e\	.	8g#/L	.	8ee\J) 8gg#	.
16d#\JJ)	.	.	.	.	.
8e\	.	8b/J	.	8ee'\L 8gg#	.
8r	.	8r	.	8ee'\J 8gg#	.
=78	=78	=78	=78	=78	=78
16r	.	8r	.	4ee\ [4gg#	.
(16d#\LL	.	.	.	.	.
16e\	.	8b/L	.	.	.
16d#\JJ)	.	.	.	.	.
8e\	.	8g#/J	.	16ee\LL 16gg#]	.
.	.	.	.	(16ee\ 16gg#	.
8r	.	8r	.	16ff#\ 16aa	.
.	.	.	.	16gg#\JJ) 16bb	.
=79	=79	=79	=79	=79	=79
16r	.	8r	.	(8gg#\L 8bb	.
(16A#X\LL	.	.	.	.	.
16B\	.	8f#/L	.	8ff#\J) 8aa	.
16A#\JJ)	.	.	.	.	.
8B\	.	8d#/J	.	8ff#'\L 8aa	.
8r	.	8r	.	8ff#'\J 8aa	.
!LO:LB:g=original	!	!	!	!LO:LB:g=original	!
=80	=80	=80	=80	=80	=80
*	*	*^	*	*^	*
8r	.	2b/	4g#\	.	16ee\LL 16gg#	4rcyy	.
.	.	.	.	.	16gg#\ 16bb	.	.
8e'\L	.	.	.	.	16ee\ 16gg#	.	.
.	.	.	.	.	16gg#\JJ 16bb	.	.
8B'\	.	.	4a\	.	16aa/LL	4ff#\	.
.	.	.	.	.	16bb/	.	.
8d#'\J	.	.	.	.	16aa/	.	.
.	.	.	.	.	16bb/JJ	.	.
!	!	!	!LO:LB:g=original	!	!	!	!
=81	=81	=81	=81	=81	=81	=81	=81
8r	.	2b/	4g#\	.	16gg#/LL	(16ee\LL	.
.	.	.	.	.	16bb/	16gg#\	.
8e\L	.	.	.	.	16gg#/	16ee\	.
.	.	.	.	.	16bb/JJ	16gg#\JJ)	.
8B\	.	.	4a\	.	16aa/LL	(4ff#\	.
.	.	.	.	.	16bb/	.	.
8d#\J	.	.	.	.	16aa/	.	.
.	.	.	.	.	16bb/JJ	.	.
*	*	*v	*v	*	*	*	*
*	*	*	*	*v	*v	*
=82	=82	=82	=82	=82	=82
8e\	.	4g#/ 4b	.	16ee\LL) 16gg#	.
.	.	.	.	16gg#\ 16bb	.
8r	.	.	.	16ee\ 16gg#	.
.	.	.	.	16gg#\JJ 16bb	.
8B\	.	(16b/LL	.	16gg#\LL 16bb	.
.	.	16a/	.	16ff#\ 16aa	.
8r	.	16g#/	.	16ee\ 16gg#	.
.	.	16f#/JJ)	.	16dd#\JJ 16ff#	.
=83	=83	=83	=83	=83	=83
.	.	.	.	8qqdd#/ 8qqff#	.
8e\L	.	4g#/ 4b	.	4cc#\ 4ee	.
8E\J	.	.	.	.	.
4r	.	4r	.	8dd#\L 8ff#	p
.	.	.	.	8dd#\J 8ff#	.
=84	=84	=84	=84	=84	=84
[2BB/	p	16r	.	4dd#\ [4ff#	.
.	.	(16A#X/LL	p	.	.
.	.	16B/	.	.	.
.	.	16A#/JJ	.	.	.
.	.	8B/)	.	16dd#\LL 16ff#]	.
.	.	.	.	(16dd#\ 16ff#	.
.	.	8r	.	16ee\ 16gg#	.
.	.	.	.	16ff#\JJ) 16aa	.
=85	=85	=85	=85	=85	=85
2BB/_	.	16r	.	(8ff#\L 8aa	.
.	.	(16d#/LL	.	.	.
.	.	16e/	.	8ee\J) 8gg#	.
.	.	16d#/JJ	.	.	.
.	.	8e/)	.	8ee\L 8gg#	.
.	.	8r	.	8ee\J 8gg#	.
=86	=86	=86	=86	=86	=86
2BB/_	.	16r	.	4ee\ [4gg#	.
.	.	(16d#/LL	.	.	.
.	.	16e/	.	.	.
.	.	16d#/JJ	.	.	.
.	.	8e/)	.	16ee\LL 16gg#]	.
.	.	.	.	(16ee\ 16gg#	.
.	.	8r	.	16ff#\ 16aa	.
.	.	.	.	16gg#\JJ) 16bb	.
!	!	!	!	!LO:LB:g=original	!
=87	=87	=87	=87	=87	=87
2BB/_	.	16r	.	8gg#\L 8bb	.
.	.	(16A#X/LL	.	.	.
.	.	16B/	.	8ff#\J 8aa	.
.	.	16A#/JJ	.	.	.
.	.	8B/)	.	8ff#\L 8aa	.
.	.	8r	.	8ff#\J 8aa	.
!	!	!LO:LB:g=original	!	!	!
=88	=88	=88	=88	=88	=88
*	*	*	*	*^	*
2BB/_	.	8r	.	16ee\LL 16gg#	4rcyy	.
.	.	.	.	16gg#\ 16bb	.	.
.	.	8e/L	.	16ee\ 16gg#	.	.
.	.	.	.	16gg#\JJ 16bb	.	.
.	.	8B/	.	16aa/LL	4ff#\	.
.	.	.	.	16bb/	.	.
.	.	8d#/J	.	16aa/	.	.
.	.	.	.	16bb/JJ	.	.
=89	=89	=89	=89	=89	=89	=89
!	!LO:HP:a:t=cres	!	!	!	!	!
2BB/]	<	8r	.	16gg#/LL	16ee\LL	.
.	.	.	.	16bb/	16gg#\	.
.	.	8e/L	.	16gg#/	16ee\	.
.	.	.	.	16bb/JJ	16gg#\JJ	.
!	!	!	!LO:HP:b:t=cres	!	!	!
.	.	8B/	<	16aa/LL	4ff#\	.
.	.	.	.	16bb/	.	.
.	.	8d#/J	.	16aa/	.	.
.	.	.	.	16bb/JJ	.	.
*	*	*	*	*v	*v	*
=90	=90	=90	=90	=90	=90
!	!LO:DY:b:t=F	!	!LO:DY:b:t=F	!	!LO:DY:b:t=F
8E\	f	4e/	f	16ee\LL 16gg#	f
.	.	.	.	16eee\JJ	.
8r	.	.	.	32ddd#\LLL	.
.	.	.	.	32ccc#\	.
.	.	.	.	32bb\	.
.	.	.	.	32aa\JJJ	.
8B\L	.	8g#/L	.	8gg#\L	.
8BB/J	.	8a/J	.	8ff#\J	.
=91	=91	=91	=91	=91	=91
!LO:TX:t=P:problem:mixed beam	!	!	!	!	!
8E\L	.	4g#/ 4b	.	4ee\	.
8EE/J	.	.	.	.	.
!LO:TX:t=P:problem: X zapisany ołówkiem w źródle	!	!	!	!	!
!LO:TX:a:t=X:color=grey	!	!	!	!	!
4r	.	4r	.	8b\L	p
.	.	.	.	8b\J	.
=92	=92	=92	=92	=92	=92
*k[cngndnf#]	*	*k[cngndnf#]	*	*k[f#cngndn]	*
*e:	*	*e:	*	*e:	*
!LO:TX:a:B:t=Mineur	!	!LO:TX:t=P:problem: kolejność znaków przykluczowych: ccn ggn ddn ff#	!	!LO:TX:t=P:problem: znaki przykluczowe kolejno: ff# ccn ggn ddn	!
4E\	p	4gn/ 4b	p	8ee\L	.
.	.	.	.	16ee\L	.
.	.	.	.	16gg\JJ	.
.	.	.	.	8qqgg/	.
8D#X/L	.	8a/L	.	8ff#\L	.
8BB/J	.	8b/J	.	16ff#\L	.
.	.	.	.	16dd#X\JJ	.
=93	=93	=93	=93	=93	=93
4E\	.	4g/ 4b	.	8ee\L	.
.	.	.	.	16gg\L	.
.	.	.	.	16bb\JJ	.
4r	.	4r	.	8b\L	.
.	.	.	.	16cc\L	.
.	.	.	.	16dd#X\JJ	.
!	!	!	!	!LO:PB:g=original	!
=94	=94	=94	=94	=94	=94
8e\	.	(16g/LL	.	8ee\L	.
.	.	16b/	.	.	.
8r	.	16g/	.	16ee\L	.
.	.	16b/JJ)	.	16gg\JJ	.
.	.	.	.	8qqgg/	.
8d#X\L	.	(16a/LL	.	8ff#\L	.
.	.	16b/	.	.	.
8B\J	.	16a/	.	16ff#\L	.
.	.	16b/JJ)	.	16dd#X\JJ	.
=95	=95	=95	=95	=95	=95
8e\L	.	8g/L	.	4ee\	.
8E\J	.	8b/	.	.	.
4r	.	8ccn/	.	(16ddn\LL	.
.	.	.	.	16ee\)	.
.	.	8d/J	.	16ff#'\	.
.	.	.	.	16dd'\JJ	.
!LO:LB:g=original	!	!LO:LB:g=original	!	!	!
=96	=96	=96	=96	=96	=96
!LO:TX:a:t=2	!	!	!	!	!
!LO:N:vis=0	!	!	!	!	!
1r	.	(16b\LL	.	8gg\L	.
.	.	16cc\)	.	.	.
.	.	16dd'\	.	16gg\L	.
.	.	16b'\JJ	.	16bb\JJ	.
.	.	.	.	8qqbb/	.
.	.	(16cc\LL	.	8aa\L	.
.	.	16dd\	.	.	.
.	.	16cc\	.	16aa\L	.
.	.	16dd\JJ)	.	16ff#\JJ	.
=97	=97	=97	=97	=97	=97
.	.	(16b\LL	.	8gg\L	.
.	.	16cc\)	.	.	.
!	!	!	!	!	!LO:HP:b:t=cres
.	.	16dd`\	.	16gg\L	<
.	.	16b`\JJ	.	16bb\JJ	.
.	.	.	.	8qqbb/	.
.	.	(16cc\LL	.	8aa\L	.
.	.	16dd\	.	.	.
.	.	16cc\	.	16aa\L	.
.	.	16dd\JJ)	.	16ff#\JJ	.
=98	=98	=98	=98	=98	=98
!	!	!	!	!	!LO:DY:b:t=F
8r	.	(16b\LL	.	8gg\L	f
.	.	16cc\)	.	.	.
8G\L	.	16dd'\	.	16bb\L	.
.	.	16b'\JJ	.	16ddd\JJ	.
8F#\	.	(16a\LL	.	8dd\L	.
.	.	16cc\	.	.	.
8D\J	.	16a\	.	16ee\L	.
.	.	16cc\JJ)	.	16ff#\JJ	.
=99	=99	=99	=99	=99	=99
8G\L	.	4d/ 4b	.	4gg\	.
8GG/J	.	.	.	.	.
4r	.	4r	.	8bb\L	p
.	.	.	.	16bb\L	.
.	.	.	.	16aa\JJ	.
=100	=100	=100	=100	=100	=100
8B\L	p	4r	.	8gg\L	.
16B\L	.	.	.	16gg\L	.
16A\JJ	.	.	.	16ff#\JJ	.
8G\L	.	8b/L	p	8ee\L	.
16G\L	.	16b/L	.	16ee\L	.
16F#\JJ	.	16a/JJ	.	16dd#X\JJ	.
=101	=101	=101	=101	=101	=101
4E\	.	8g/L	.	8ee\L	.
.	.	8g/	.	8b\J	.
4BB/	.	8f#/	.	16dd#X\LL	.
.	.	.	.	16ee\	.
.	.	8a/J	.	16ff#\	.
.	.	.	.	16dd#\JJ	.
!	!	!	!	!LO:LB:g=original	!
=102	=102	=102	=102	=102	=102
4E\	.	4g/	.	16ee\LL	.
.	.	.	.	16dd#X\	.
.	.	.	.	16ee\	.
.	.	.	.	16ff#\JJ	.
4r	.	4r	.	16gg\LL	.
.	.	.	.	16ff#\	.
.	.	.	.	16gg\	.
.	.	.	.	16bb\JJ	.
!	!	!LO:LB:g=original	!	!	!
=103	=103	=103	=103	=103	=103
8B\L	.	8d#X/L	.	4b\ 4ff#	.
8BB/J	.	8d#/J	.	.	.
!	!	!	!LO:DY:b:t=F	!	!
4r	.	8b/L	f	4r	.
.	.	16b/L	.	.	.
.	.	16a/JJ	.	.	.
=104	=104	=104	=104	=104	=104
!	!	!	!	!	!LO:DY:b:t=F
4r	.	8g/L	.	8bb\L	f
.	.	16g/L	.	16bb\L	.
.	.	16f#/JJ	.	16aa\JJ	.
8B\L	.	8e/L	.	8gg\L	.
16B\L	.	16e/L	.	16gg\L	.
16A\JJ	.	16d#X/JJ	.	16ff#\JJ	.
=105	=105	=105	=105	=105	=105
8G\L	.	8e/L	.	8ee\L	.
8E\	.	8g/	.	8b\J	.
8F#\	.	8a/	.	(16dd#X\LL	.
.	.	.	.	16ee\)	.
8A\J	.	8cc/J	.	16ff#'\	.
.	.	.	.	16dd#'\JJ	.
=106	=106	=106	=106	=106	=106
8G\L	.	8b\	.	16ee\LL	.
.	.	.	.	16ff#\	.
8E\	.	4ee\	.	16gg\	.
.	.	.	.	16bb\JJ	.
.	.	.	.	8qqgg/	.
8B\	.	.	.	16ff#\LL	.
.	.	.	.	16ee\	.
8BB\J	.	8dd#X\	.	16ff#\	.
.	.	.	.	16gg\JJ	.
=107	=107	=107	=107	=107	=107
!LO:TX:t=P:problem:mixed beam	!	!	!	!	!
8E\L	.	4ee\	.	4ee\	.
8EE/J	.	.	.	.	.
!	!	!	!	!	!LO:DY:b:t=F
4r	.	4r	.	8gg\L	f
.	.	.	.	8gg\J	.
=108	=108	=108	=108	=108	=108
!	!LO:DY:b:t=F	!	!	!	!
8C/	f	8r	.	8G/ 8e 8cc 8ccc	.
!	!	!	!LO:DY:b:t=F	!	!
8r	.	8G/ 8e	f	8r	.
8GG/	.	8r	.	8G/ 8d 8b 8gg	.
8r	.	8G/ 8fn	.	8r	.
=109	=109	=109	=109	=109	=109
8CC/L	.	(16e/LL	.	4G/ 4e 4cc	.
.	.	16G/	.	.	.
8C/	.	16e/	.	.	.
.	.	16G/JJ)	.	.	.
8C/	.	(16e/LL	.	4r	.
.	.	16G/	.	.	.
8C/J	.	16e/	.	.	.
.	.	16G/JJ)	.	.	.
!	!	!LO:PB:g=original	!	!	!
=110	=110	=110	=110	=110	=110
*tremolo	*	*	*	*	*
8C/L	.	(16e/LL	.	4r	.
.	.	16G/	.	.	.
8C/	.	16e/	.	.	.
.	.	16G/JJ)	.	.	.
8C/	.	(16e/LL	.	4gg\	.
.	.	16G/	.	.	.
8C/J	.	16e/	.	.	.
.	.	16G/JJ)	.	.	.
=111	=111	=111	=111	=111	=111
8CC/L	.	(16e/LL	.	2ccc\	.
.	.	16G/	.	.	.
8C/	.	16e/	.	.	.
.	.	16G/JJ)	.	.	.
8GG/	.	(16e/LL	.	.	.
.	.	16G/	.	.	.
8EE/J	.	16e/	.	.	.
.	.	16G/JJ)	.	.	.
!LO:LB:g=original	!	!	!	!	!
=112	=112	=112	=112	=112	=112
*	*	*	*	*8va	*
8CC/L	.	(16e/LL	.	2eee\	.
.	.	16G/	.	.	.
8C/	.	16e/	.	.	.
.	.	16G/JJ)	.	.	.
8C/	.	(16e/LL	.	.	.
.	.	16G/	.	.	.
8C/J	.	16e/	.	.	.
.	.	16G/JJ)	.	.	.
=113	=113	=113	=113	=113	=113
8C/L	.	(16e/LL	.	2ggg\	.
.	.	16G/	.	.	.
8C/	.	16e/	.	.	.
.	.	16G/JJ)	.	.	.
8C/	.	(16e/LL	.	.	.
.	.	16G/	.	.	.
8C/J	.	16e/	.	.	.
.	.	16G/JJ)	.	.	.
*Xtremolo	*	*	*	*	*
!	!	!LO:LB:g=original	!	!LO:LB:g=original	!
=114	=114	=114	=114	=114	=114
4CC/	.	(16e/LL	.	4ggg\	.
.	.	16G/	.	.	.
.	.	16e/	.	.	.
.	.	16G/JJ)	.	.	.
4C/	.	(16e/LL	.	8eee\L	.
.	.	16G/	.	.	.
.	.	16e/	.	8ccc\J	.
.	.	16G/JJ)	.	.	.
=115	=115	=115	=115	=115	=115
[2BB/	.	(16fn/LL	.	2gg/	.
.	.	16G/	.	.	.
.	.	16f/	.	.	.
.	.	16G/JJ)	.	.	.
.	.	(16f/LL	.	.	.
.	.	16G/	.	.	.
.	.	16f/	.	.	.
.	.	16G/JJ)	.	.	.
=116	=116	=116	=116	=116	=116
4BB/]	.	(16fn/LL	.	[4gg/	.
.	.	16G/	.	.	.
.	.	16f/	.	.	.
.	.	16G/JJ)	.	.	.
4GG/	.	(16f/LL	.	16gg/LL]	.
.	.	16G/	.	16aa/	.
.	.	16f/	.	16bb/	.
.	.	16G/JJ)	.	16ccc/JJ	.
=117	=117	=117	=117	=117	=117
8r	.	(16e/LL	.	[2ccc\	.
.	.	16G/	.	.	.
8C/L	.	16e/	.	.	.
.	.	16G/JJ)	.	.	.
8GG/	.	(16e/LL	.	.	.
.	.	16G/	.	.	.
8EE/J	.	16e/	.	.	.
.	.	16G/JJ)	.	.	.
!	!	!LO:LB:g=original	!	!	!
=118	=118	=118	=118	=118	=118
4CC/	.	(16e/LL	.	4ccc\]	.
.	.	16G/	.	.	.
.	.	16e/	.	.	.
.	.	16G/JJ)	.	.	.
4r	.	(16e/LL	.	4r	.
.	.	16G/	.	.	.
.	.	16e/	.	.	.
.	.	16G/JJ)	.	.	.
=119	=119	=119	=119	=119	=119
8r	.	16fn'/LL	.	2ffn/	.
.	.	16c'/	.	.	.
8Fn/L	.	16A'/	.	.	.
.	.	16c'/JJ	.	.	.
8C/	.	16f'/LL	.	.	.
.	.	16c'/	.	.	.
8AA/J	.	16A'/	.	.	.
.	.	16c'/JJ	.	.	.
=120	=120	=120	=120	=120	=120
4FFn/	.	16fn/LL	.	2aaa\	.
.	.	16c/	.	.	.
.	.	16A/	.	.	.
.	.	16c/JJ	.	.	.
4r	.	16f/LL	.	.	.
.	.	16c/	.	.	.
.	.	16A/	.	.	.
.	.	16c/JJ	.	.	.
=121	=121	=121	=121	=121	=121
8r	.	16e/LL	.	8aaa\L	.
.	.	16c/	.	.	.
8C/L	.	16G/	.	8fff#X\J	.
.	.	16c/JJ	.	.	.
8GG/	.	16e/LL	.	8ggg\L	.
.	.	16g/	.	.	.
8EE/J	.	16cc/	.	8ggg\J	.
.	.	16dd/JJ	.	.	.
!	!	!LO:LB:g=original	!	!	!
=122	=122	=122	=122	=122	=122
4CC/	.	8ee\L	.	8ggg\L	.
.	.	(16ffn\L	.	16aaa\L	.
.	.	16ee\JJ)	.	16ggg\JJ	.
4r	.	8dd'\L	.	8fffn\L	.
.	.	8cc'\J	.	8eee\J	.
=123	=123	=123	=123	=123	=123
4GG/	.	16b'/LL	.	4ddd\	.
.	.	16g'/	.	.	.
.	.	16d'/	.	.	.
.	.	16g'/JJ	.	.	.
4G\	.	16d'/LL	.	4ddd\	.
.	.	16g'/	.	.	.
.	.	16d'/	.	.	.
.	.	16B'/JJ	.	.	.
=124	=124	=124	=124	=124	=124
4C/	.	16G/LL	.	8.eee\L	.
.	.	16g/	.	.	.
.	.	16e/	.	.	.
.	.	16g/JJ	.	16ddd\K	.
4c\	.	16G/LL	.	8.eee\	.
.	.	16g/	.	.	.
.	.	16e/	.	.	.
.	.	16g/JJ	.	16ggg\Jk	.
=125	=125	=125	=125	=125	=125
8B\L	.	16G/LL	.	2ddd\	.
.	.	16g/	.	.	.
8G\	.	16d/	.	.	.
.	.	16g/JJ	.	.	.
8D\	.	16b/LL	.	.	.
.	.	16g/	.	.	.
8BB\J	.	16d/	.	.	.
.	.	16g/JJ	.	.	.
=126	=126	=126	=126	=126	=126
4GG/	.	16b\LL	.	4ddd\	.
.	.	16cc\	.	.	.
.	.	16dd\	.	.	.
.	.	16cc\JJ	.	.	.
*	*	*	*	*X8va	*
4r	.	16b/LL	.	8r	.
.	.	16a/	.	.	.
!	!	!	!	!LO:TX:b:i:t=loco	!
.	.	16g/	.	8g/	.
.	.	16f#/JJ	.	.	.
!	!	!LO:LB:g=original	!	!	!
=127	=127	=127	=127	=127	=127
8r	.	(16e/LL	p	2cc\	.
.	.	16g/	.	.	.
(8c\L	p	16cc/	.	.	.
.	.	16g/JJ)	.	.	.
8G\	.	(16e/LL	.	.	.
.	.	16g/	.	.	.
8E\J	.	16e/	.	.	.
.	.	16g/JJ)	.	.	.
=128	=128	=128	=128	=128	=128
8C/L)	.	(16e/LL	.	2ee\	.
.	.	16g/	.	.	.
(8C/	.	16cc/	.	.	.
.	.	16g/JJ)	.	.	.
8GG/	.	(16e/LL	.	.	.
.	.	16g/	.	.	.
8EE/J)	.	16e/	.	.	.
.	.	16g/JJ)	.	.	.
!LO:LB:g=original	!	!	!	!	!
=129	=129	=129	=129	=129	=129
(8CC/L	.	16e/LL	.	[2gg\	.
.	.	16g/	.	.	.
8EE/	.	16cc/	.	.	.
.	.	16g/JJ	.	.	.
8GG/	.	16e/LL	.	.	.
.	.	16g/	.	.	.
8C/J)	.	16e/	.	.	.
.	.	16g/JJ	.	.	.
=130	=130	=130	=130	=130	=130
(8E\L	.	16e/LL	.	4gg\]	.
.	.	16g/	.	.	.
8G\	.	16cc/	.	.	.
.	.	16g/JJ	.	.	.
8c\	.	16e/LL	.	8ee\L	.
.	.	16g/	.	.	.
8e\J)	.	16e/	.	8cc\J	.
.	.	16g/JJ	.	.	.
!	!	!	!	!LO:LB:g=original	!
=131	=131	=131	=131	=131	=131
(8fn\L	.	(8dd\L	.	[2g/	.
8e\	.	8cc\	.	.	.
8d\	.	8b\	.	.	.
8e\J)	.	8cc\J)	.	.	.
=132	=132	=132	=132	=132	=132
(8fn\L	.	(8dd/L	.	12g/L]	.
.	.	.	.	12b/	.
8d\	.	8b/	.	.	.
.	.	.	.	12a/J	.
8B\	.	8g/	.	12g/L	.
.	.	.	.	12a/	.
8G\J)	.	8fn/J)	.	.	.
.	.	.	.	12b/J	.
!	!	!LO:LB:g=original	!	!	!
=133	=133	=133	=133	=133	=133
8r	.	(16e/LL	.	[2cc\	.
.	.	16g/	.	.	.
(8c\L	.	16cc/	.	.	.
.	.	16g/JJ)	.	.	.
8G\	.	(16e/LL	.	.	.
.	.	16g/	.	.	.
8E\J)	.	16e/	.	.	.
.	.	16g/JJ)	.	.	.
=134	=134	=134	=134	=134	=134
(8C/L	.	(16e/LL	.	4cc\]	.
.	.	16g/	.	.	.
8GG/	.	16cc/	.	.	.
.	.	16g/JJ)	.	.	.
8EE/	.	(16e/LL	.	4r	.
.	.	16g/	.	.	.
8CC/J)	.	16e/	.	.	.
.	.	16g/JJ)	.	.	.
=135	=135	=135	=135	=135	=135
4r	.	(16A/LL	.	[2fn/	.
.	.	16c/	.	.	.
.	.	16fn/	.	.	.
.	.	16c/JJ)	.	.	.
4FFn/	.	(16A/LL	.	.	.
.	.	16c/	.	.	.
.	.	16A/	.	.	.
.	.	16c/JJ)	.	.	.
=136	=136	=136	=136	=136	=136
4Fny\	.	(16A/LL	.	4f/]	.
.	.	16c/	.	.	.
.	.	16fn/	.	.	.
.	.	16c/JJ)	.	.	.
4r	.	(16A/LL	.	4aa\	.
.	.	16c/	.	.	.
.	.	16A/	.	.	.
.	.	16c/JJ)	.	.	.
=137	=137	=137	=137	=137	=137
.	.	.	.	8qqaa/	.
16r	.	16r	.	4gg\	.
16C\LL	.	16e'/LL	.	.	.
16D\	.	16fn'/	.	.	.
16E\JJ	.	16g'/JJ	.	.	.
16Fn\LL	.	16a'\LL	.	4gg\	.
16G\	.	16b'\	.	.	.
16A\	.	16cc'\	.	.	.
16B\JJ	.	16dd'\JJ	.	.	.
!	!	!LO:LB:g=original	!	!	!
=138	=138	=138	=138	=138	=138
8c\L	.	8ee\L	.	8gg\L	.
8C\	.	16ffn\L	.	16aa\L	.
.	.	16ee\JJ	.	16gg\JJ	.
8D\	.	8dd\L	.	8ffn\L	.
8E\J	.	8cc\J	.	8ee\J	.
=139	=139	=139	=139	=139	=139
8Fn\	p	8a/L	p	16ee\LL	.
.	.	.	.	16dd\	.
8r	.	8fn/	.	16ffn\	.
.	.	.	.	16dd\JJ	.
8F#X\L	.	8e-X/	.	[4cc\	.
8F#\J	.	8e-/J	.	.	.
=140	=140	=140	=140	=140	=140
8G\L	.	8en/L	.	4cc\]	.
8G\	.	8e/	.	.	.
8GG/	.	8d/ 8fn	.	4b\	.
8GG/J	.	8d/J 8f	.	.	.
=141	=141	=141	=141	=141	=141
!	!LO:DY:b:t=F	!	!LO:DY:b:t=F	!	!
4CC/ 4C	f	4G/ 4e	f	16e/LL 16cc	.
.	.	.	.	16g/ 16ee	.
.	.	.	.	16g/ 16ee	.
.	.	.	.	16g/JJ 16ee	.
4r	.	4r	.	16g/LL 16ee	.
.	.	.	.	16fn/ 16dd	.
.	.	.	.	16f/ 16dd	.
.	.	.	.	16e/JJ 16cc	.
!LO:LB:g=original	!	!	!	!LO:LB:g=original	!
=142	=142	=142	=142	=142	=142
4CC/ 4C	.	4G/ 4e	.	16e\LL 16cc	.
.	.	.	.	16ee\ 16gg	.
.	.	.	.	16ee\ 16gg	.
.	.	.	.	16ee\JJ 16gg	.
4r	.	4r	.	16ee\LL 16gg	.
.	.	.	.	16dd\ 16ffn	.
.	.	.	.	16dd\ 16ff	.
.	.	.	.	16cc\JJ 16ee	.
=143	=143	=143	=143	=143	=143
*	*	*	*	*^	*
4GG/	.	(16b\LL	.	16g/LL	4rcyy	.
.	.	16dd\)	.	16g/ 16ffn	.	.
.	.	16dd'\	.	16g/ 16ff	.	.
.	.	16dd'\JJ	.	16g/JJ 16ff	.	.
4r	.	(16dd\LL	.	16ff/LL	4g\	.
.	.	16cc\)	.	16ee/	.	.
.	.	(16cc\	.	16ee/	.	.
.	.	16b\JJ)	.	16dd/JJ	.	.
*	*	*	*	*v	*v	*
=144	=144	=144	=144	=144	=144
4GG/ 4G	.	4d/ 4b	.	16g\LL 16ffn	.
.	.	.	.	16ff\ 16ddd	.
.	.	.	.	16ff\ 16ddd	.
.	.	.	.	16ff\JJ 16ddd	.
4r	.	4r	.	16ff\LL 16ddd	.
.	.	.	.	16ee\ 16ccc	.
.	.	.	.	16ee\ 16ccc	.
.	.	.	.	16dd\JJ 16bb	.
=145	=145	=145	=145	=145	=145
4C/	p	4G/ 4e	p	16e/LL 16cc	p
.	.	.	.	16g/ 16ee	.
.	.	.	.	16g/ 16ee	.
.	.	.	.	16g/JJ 16ee	.
4r	.	4r	.	16g/LL 16ee	.
.	.	.	.	16fn/ 16dd	.
.	.	.	.	16f/ 16dd	.
.	.	.	.	16e/JJ 16cc	.
=146	=146	=146	=146	=146	=146
4CC/	.	4G/ 4e	.	16e\LL 16cc	.
.	.	.	.	16ee\ 16gg	.
.	.	.	.	16ee\ 16gg	.
.	.	.	.	16ee\JJ 16gg	.
4r	.	4r	.	16ee\LL 16gg	.
.	.	.	.	16dd\ 16ffn	.
.	.	.	.	16dd\ 16ff	.
.	.	.	.	16cc\JJ 16ee	.
!	!	!LO:LB:g=original	!	!	!
=147	=147	=147	=147	=147	=147
*	*	*	*	*^	*
4GG/	.	(16b\LL	.	16ffn/LL	2g\	.
.	.	16dd\)	.	16ff/	.	.
.	.	16dd'\	.	16ff/	.	.
.	.	16dd'\JJ	.	16ff/JJ	.	.
4r	.	(16dd\LL	.	16ff/LL	.	.
.	.	16cc\)	.	16ee/	.	.
.	.	(16cc\	.	16ee/	.	.
.	.	16b\JJ)	.	16dd/JJ	.	.
*	*	*	*	*v	*v	*
!	!	!	!	!LO:LB:g=original	!
=148	=148	=148	=148	=148	=148
4G\	.	4d/ 4b	.	16g\LL 16ffn	.
.	.	.	.	16ff\ 16ddd	.
.	.	.	.	16ff\ 16ddd	.
.	.	.	.	16ff\JJ 16ddd	.
4r	.	4r	.	16ff\LL 16ddd	.
.	.	.	.	16ee\ 16ccc	.
.	.	.	.	16ee\ 16ccc	.
.	.	.	.	16dd\JJ 16bb	.
=149	=149	=149	=149	=149	=149
!LO:TX:a:i:t=rinf	!	!LO:TX:a:i:t=rinf	!	!	!
[2CC/ 2C	.	[2G/ 2e	.	(16c\LL 16g 16ee	.
.	.	.	.	16ccc\)	.
.	.	.	.	(16ccc\	.
.	.	.	.	16gg\JJ)	.
.	.	.	.	(16gg\LL	.
.	.	.	.	16ee\)	.
.	.	.	.	(16ee\	.
.	.	.	.	16cc\JJ)	.
=150	=150	=150	=150	=150	=150
4CC/] 4C	.	4G/] 4e	.	16cc/LL	.
.	.	.	.	16g/	.
.	.	.	.	16g/	.
.	.	.	.	16e/JJ	.
4r	.	4r	.	16e/LL	.
.	.	.	.	16c/	.
.	.	.	.	16c/	.
.	.	.	.	16G/JJ	.
=151	=151	=151	=151	=151	=151
!LO:TX:a:i:t=rinf	!	!LO:TX:a:i:t=rinf	!	!	!
[2CC/ 2C	.	[2G/ 2e-X	.	16c/LL 16g 16ee-X	.
.	.	.	.	16ccc/	.
.	.	.	.	16ccc/	.
.	.	.	.	16gg/JJ	.
.	.	.	.	16gg\LL	.
.	.	.	.	16ee-\	.
.	.	.	.	16ee-\	.
.	.	.	.	16cc\JJ	.
=152	=152	=152	=152	=152	=152
4CC/] 4C	.	4G/] 4e-X	.	16cc/LL	.
.	.	.	.	16g/	.
.	.	.	.	16g/	.
.	.	.	.	16e-X/JJ	.
4r	.	4r	.	16e-/LL	.
.	.	.	.	16c/	.
.	.	.	.	16c/	.
.	.	.	.	16G/JJ	.
=153	=153	=153	=153	=153	=153
!LO:TX:a:i:t=rinf	!	!	!	!	!
[2CC/ 2C	.	[2A-X/ 2e-X	.	16c\LL 16a-X 16ee-X	.
.	.	.	.	16ccc\	.
.	.	.	.	16ccc\	.
.	.	.	.	16aa-X\JJ	.
.	.	.	.	16aa-\LL	.
.	.	.	.	16ee-\	.
.	.	.	.	16ee-\	.
.	.	.	.	16cc\JJ	.
!	!	!	!	!LO:LB:g=original	!
=154	=154	=154	=154	=154	=154
4CC/] 4C	.	4A-X/] 4e-X	.	16cc/LL	.
.	.	.	.	16a-X/	.
.	.	.	.	16a-/	.
.	.	.	.	16e-X/JJ	.
!LO:TX:t=P:problem: X zapisany ołówkiem w źródle	!	!	!	!	!
!LO:TX:a:t=X:color=grey	!	!	!	!	!
4r	.	4r	.	16e-/LL	.
.	.	.	.	16c/	.
.	.	.	.	16c/	.
.	.	.	.	16A-X/JJ	.
=155	=155	=155	=155	=155	=155
2B-X\	.	8r	.	(16G/LL	.
.	.	.	.	16B-X/	.
.	.	(8ee-X\L	.	16d-X/	.
.	.	.	.	16e-X/JJ	.
.	.	8dd-X\	.	16g/LL	.
.	.	.	.	16b/	.
.	.	8b-X\J)	.	16ee/	.
.	.	.	.	16gg/JJ)	.
=156	=156	=156	=156	=156	=156
2G\	.	2e-yX/ 2b-X	.	(16bb-X\LL	.
.	.	.	.	16ccc\	.
.	.	.	.	16ddd-X\	.
.	.	.	.	16ccc\JJ	.
.	.	.	.	16bb-\LL	.
.	.	.	.	16ccc\	.
.	.	.	.	16ddd-\	.
.	.	.	.	16ccc\JJ)	.
=157	=157	=157	=157	=157	=157
4E-X\	.	4g/ 4b-X	.	(16bb-X\LL	.
.	.	.	.	16ccc\	.
.	.	.	.	16ddd-X\	.
.	.	.	.	16ccc\JJ	.
4r	.	4r	.	16bb-\LL	.
.	.	.	.	16aa-X\	.
.	.	.	.	16gg\	.
.	.	.	.	16ffn\JJ)	.
=158	=158	=158	=158	=158	=158
!LO:TX:a:t=1	!	!LO:TX:a:t=1	!	!	!
2r	.	2r	.	(16ee-X\LL	.
.	.	.	.	16gg\	.
.	.	.	.	16bb-X\	.
.	.	.	.	16aa-X\JJ	.
.	.	.	.	16gg\LL	.
.	.	.	.	16ff#\	.
.	.	.	.	16ee-\	.
.	.	.	.	16dd-X\JJ)	.
!	!	!LO:LB:g=original	!	!	!
=159	=159	=159	=159	=159	=159
4AA-X/	.	4c/ 4e-X	.	(16cc/LL	.
.	.	.	.	16a-X/	.
.	.	.	.	16e-X/	.
.	.	.	.	16a-/JJ)	.
4A-yX\	.	4c/ 4e-	.	(16cc/LL	.
.	.	.	.	16a-/	.
.	.	.	.	16e-/	.
.	.	.	.	16a-/JJ)	.
!	!	!	!	!LO:LB:g=original	!
=160	=160	=160	=160	=160	=160
4A-yX\	.	4c/ 4e-X	.	16cc/LL	.
.	.	.	.	16a-X/	.
.	.	.	.	16e-X/	.
.	.	.	.	16a-/JJ	.
4A-\	.	4c/ 4e-	.	16cc/LL	.
.	.	.	.	16a-/	.
.	.	.	.	16e-/	.
.	.	.	.	16a-/JJ	.
=161	=161	=161	=161	=161	=161
4AA-X/	p	4c-X/ 4e-X	p	16cc/LL	.
.	.	.	.	16a-X/	.
.	.	.	.	16e-X/	.
.	.	.	.	16a-/JJ	.
4A-yX\	.	4c-/ 4e-	.	16cc/LL	.
.	.	.	.	16a-/	.
.	.	.	.	16e-/	.
.	.	.	.	16a-/JJ	.
=162	=162	=162	=162	=162	=162
4A-yX\	.	4c-X/ 4e-X	.	16cc/LL	.
.	.	.	.	16a-X/	.
.	.	.	.	16e-X/	.
.	.	.	.	16a-/JJ	.
4A-\	.	4c-/ 4e-	.	16cc/LL	.
.	.	.	.	16a-/	.
.	.	.	.	16e-/	.
.	.	.	.	16a-/JJ	.
=163	=163	=163	=163	=163	=163
!	!LO:DY:b:t=F	!	!LO:DY:b:t=F	!	!LO:DY:b:t=F
4G#X\	f	4en/	f	(16en/LL 16bn 16een	f
.	.	.	.	16e/	.
.	.	.	.	16f#X/	.
.	.	.	.	16g#X/JJ	.
4r	.	4r	.	16an/LL	.
.	.	.	.	16b/	.
.	.	.	.	16cc#X/	.
.	.	.	.	16dd#X/JJ)	.
=164	=164	=164	=164	=164	=164
2En\	.	[2B/ 2g#X	.	(16ee\LL	.
.	.	.	.	16ff#\	.
.	.	.	.	16gg#X\	.
.	.	.	.	16aa\JJ	.
.	.	.	.	16bb\LL	.
.	.	.	.	16ccc#X\	.
.	.	.	.	16ddd#X\	.
.	.	.	.	16eee\JJ)	.
!LO:LB:g=original	!	!	!	!LO:LB:g=original	!
=165	=165	=165	=165	=165	=165
2F#X\	.	2B/_ 2an	.	(16eee\LL	.
.	.	.	.	16ddd#X\)	.
.	.	.	.	(16ddd#\	.
.	.	.	.	16bb\JJ)	.
.	.	.	.	(16bb\LL	.
.	.	.	.	16aa\)	.
.	.	.	.	(16aa\	.
.	.	.	.	16ff#\JJ)	.
=166	=166	=166	=166	=166	=166
2BBn/	.	4B/] 4a	.	(16ff#\LL	.
.	.	.	.	16dd#X\)	.
.	.	.	.	(16dd#\	.
.	.	.	.	16b\JJ)	.
.	.	4r	.	(16b/LL	.
.	.	.	.	16a/)	.
.	.	.	.	(16a/	.
.	.	.	.	16f#/JJ)	.
=167	=167	=167	=167	=167	=167
[2E\	p	[2B/ 2gn	p	(16gn/LL	p
.	.	.	.	16e/	.
.	.	.	.	16f#/	.
.	.	.	.	16g/JJ	.
.	.	.	.	16a/LL	.
.	.	.	.	16b/	.
.	.	.	.	16ccn/	.
.	.	.	.	16dd#X/JJ)	.
=168	=168	=168	=168	=168	=168
2E\]	.	2B/] 2g	.	16ee\LL	.
.	.	.	.	16ff#\	.
.	.	.	.	16gg\	.
.	.	.	.	16aa\JJ	.
.	.	.	.	16bb\LL	.
.	.	.	.	16ccc\	.
.	.	.	.	16ddd#X\	.
.	.	.	.	16eee\JJ	.
=169	=169	=169	=169	=169	=169
2F#\	.	[2B/ 2a	.	(16eee\LL	.
.	.	.	.	16ddd#X\)	.
.	.	.	.	(16ddd#\	.
.	.	.	.	16bb\JJ)	.
.	.	.	.	(16bb\LL	.
.	.	.	.	16aa\)	.
.	.	.	.	(16aa\	.
.	.	.	.	16ff#\JJ)	.
=170	=170	=170	=170	=170	=170
2BB/	.	4B/] 4a	.	16ff#\LL	.
.	.	.	.	16dd#X\	.
.	.	.	.	16dd#\	.
.	.	.	.	16b\JJ	.
.	.	4r	.	16b/LL	.
.	.	.	.	16a/	.
.	.	.	.	16a/	.
.	.	.	.	16f#/JJ	.
!	!	!LO:LB:g=original	!	!LO:LB:g=original	!
=171	=171	=171	=171	=171	=171
4E\	.	16ee\KL	<	8g'/L	.
.	.	8ee\	.	.	.
.	.	.	.	(40e/LL	.
.	.	.	.	40f#/	.
.	.	.	.	40g/	.
.	.	8ee\	.	.	.
.	.	.	.	40f#/	.
.	.	.	.	40e/JJJ)	.
4Cn^/	.	.	.	8cn'/L	.
.	.	8ee\	.	.	.
.	.	.	.	(40e/LL	.
.	.	.	.	40f#/	.
.	.	.	.	40g/	.
.	.	[16ee\Jk	.	.	.
.	.	.	.	40f#/	.
.	.	.	.	40e/JJJ)	.
=172	=172	=172	=172	=172	=172
4BB^/	.	16ee\KL]	.	8B'/L	.
.	.	8ee\	.	.	.
.	.	.	.	(40e/LL	.
.	.	.	.	40f#/	.
.	.	.	.	40g/	.
.	.	8ee\	.	.	.
.	.	.	.	40f#/	.
.	.	.	.	40e/JJJ)	.
4AA#X^/	.	.	.	8A#X'/L	.
.	.	8ee\	.	.	.
.	.	.	.	(40e/LL	.
.	.	.	.	40f#/	.
.	.	.	.	40g/	.
.	.	16ee\Jk	[	.	.
.	.	.	.	40f#/	.
.	.	.	.	40e/JJJ)	.
=173	=173	=173	=173	=173	=173
[2BB/	.	8dd#X\	.	16B/LL	.
.	.	.	.	16b/	.
.	.	8r	.	16dd#X/	.
.	.	.	.	16ff#/JJ	.
.	.	8f#/L	.	(16bb\LL	.
.	.	.	.	16b\	.
.	.	8d#X/J	.	16bb\)	.
.	.	.	.	16aan'\JJ	.
=174	=174	=174	=174	=174	=174
2BB/_	.	4e/	.	16gg\LL	.
.	.	.	.	16ee\	.
.	.	.	.	16gg\	.
.	.	.	.	16bb\JJ	.
.	.	8e/L	.	16aa\LL	.
.	.	.	.	16gg\	.
.	.	8g/J	.	16ff#\	.
.	.	.	.	16ee\JJ	.
=175	=175	=175	=175	=175	=175
2BB/_	.	8f#/	.	(16dd#X\LL	.
.	.	.	.	16b\	.
.	.	8r	.	16dd#\	.
.	.	.	.	16ff#\JJ	.
.	.	8f#/L	.	16bb\LL)	.
.	.	.	.	(16b\	.
.	.	8d#X/J	.	16bb\)	.
.	.	.	.	16aa\JJ	.
!	!	!	!	!LO:LB:g=original	!
=176	=176	=176	=176	=176	=176
2BB/_	.	4e/	.	16gg\LL	.
.	.	.	.	16ee\	.
.	.	.	.	16gg\	.
.	.	.	.	16bb\JJ	.
.	.	8e/L	.	16aa\LL	.
.	.	.	.	16gg\	.
.	.	8g/J	.	16ff#\	.
.	.	.	.	16ee\JJ	.
=177	=177	=177	=177	=177	=177
4BB/]	.	4f#/	.	(16dd#X\LL	.
.	.	.	.	16b\	.
.	.	.	.	16a#X\	.
.	.	.	.	16b\JJ	.
4r	.	4r	.	16ccn\LL	.
.	.	.	.	16cc#X\	.
.	.	.	.	16ddn\	.
.	.	.	.	16dd#X\JJ)	.
=178	=178	=178	=178	=178	=178
!LO:TX:a:t=1	!	!LO:TX:a:t=1	!	!	!
2r	.	2r	.	(16ee\LL	.
.	.	.	.	16ffn\	.
.	.	.	.	16ff#X\	.
.	.	.	.	16gg\JJ	.
.	.	.	.	16gg#X\LL	.
.	.	.	.	16aa\	.
.	.	.	.	16aa#X\)	.
.	.	.	.	16bb\JJ	.
=179	=179	=179	=179	=179	=179
(4F#\	p	(4a/	p	(16bb\LL	.
.	.	.	.	16aa#X\	.
.	.	.	.	16bb\	.
.	.	.	.	16aa#\JJ)	.
4E\)	.	4gn/)	.	(16bb\LL	.
.	.	.	.	16aa#\	.
.	.	.	.	16bb\	.
.	.	.	.	16aa#\JJ)	.
=180	=180	=180	=180	=180	=180
(<4D#X\	.	(4f#/	.	16bb\LL	.
.	.	.	.	16aa#yX\	.
.	.	.	.	16bb\	.
.	.	.	.	16aa#\JJ	.
4C#X/)	.	4e/)	.	16bb\LL	.
.	.	.	.	16aa#\	.
.	.	.	.	16bb\	.
.	.	.	.	16aa#\JJ	.
!	!	!LO:LB:g=original	!	!LO:LB:g=original	!
=181	=181	=181	=181	=181	=181
4BB/	.	4d#X/	.	16bb'\LL	>
.	.	.	.	16bb'\	.
.	.	.	.	16aa#X'\	.
.	.	.	.	16aan'\JJ	.
4r	.	4r	.	16gg#X'\LL	.
.	.	.	.	16ggn'\	.
.	.	.	.	16ff#'\	]
.	.	.	.	16ee'\JJ	.
=182	=182	=182	=182	=182	=182
!LO:TX:a:t=1	!	!LO:TX:a:t=1	!	!	!LO:HP:a
2r	.	2r	.	16dd#X'\LL	>
.	.	.	.	16ddn'\	.
.	.	.	.	16cc#X'\	.
.	.	.	.	16ccn'\JJ	.
.	.	.	.	8b\L	]
.	.	.	.	8b\J	.
=183	=183	=183	=183	=183	=183
4E\	p	8g/ 8b	p	8ee\L	p
.	.	8r	.	16ee\L	.
.	.	.	.	16gg\JJ	.
.	.	.	.	8qqgg/	.
8D#X/L	.	8a/L	.	8ff#'\L	.
8BB/J	.	8b/J	.	(16ff#\L	.
.	.	.	.	16dd#X\JJ)	.
!LO:LB:g=original	!	!	!	!	!
=184	=184	=184	=184	=184	=184
4E\	.	4g/ 4b	.	8ee\L	.
.	.	.	.	16gg\L	.
.	.	.	.	16bb\JJ	.
4r	.	4r	.	8b\L	.
.	.	.	.	16cc\L	.
.	.	.	.	16dd#X\JJ	.
=185	=185	=185	=185	=185	=185
8e\	.	8g/L	.	8ee\L	.
8r	.	8b/	.	16ee\L	.
.	.	.	.	16gg\JJ	.
.	.	.	.	8qqgg/	.
8d#X\L	.	8a/	.	8ff#\L	.
8B\J	.	8b/J	.	16ff#\L	.
.	.	.	.	16dd#X\JJ	.
=186	=186	=186	=186	=186	=186
8e\L	.	8g/L	.	4ee\	.
8E\J	.	8b/	.	.	.
4r	.	8cc/	.	16ddn\LL	.
.	.	.	.	16ee\	.
.	.	8a/J	.	16ff#\	.
.	.	.	.	16dd\JJ	.
=187	=187	=187	=187	=187	=187
[2D\	.	(16b\LL	.	8gg\L	.
.	.	16cc\)	.	.	.
.	.	16dd'\	.	16gg\L	.
.	.	16b'\JJ	.	16bb\JJ	.
.	.	.	.	8qqbb/	.
.	.	(16cc\LL	.	8aa\L	.
.	.	16b\)	.	.	.
.	.	16cc'\	.	16aa\L	.
.	.	16a'\JJ	.	16ff#\JJ	.
!	!	!	!	!LO:LB:g=original	!
=188	=188	=188	=188	=188	=188
2D\_	.	(16b\LL	.	8gg\L	.
.	.	16cc\)	.	.	.
!	!	!	!	!	!LO:HP:b:t=cres
.	.	16dd'\	.	16gg\L	<
.	.	16b'\JJ	.	16bb\JJ	.
.	.	.	.	8qqbb/	.
!	!	!	!LO:HP:b:t=cres	!	!
.	.	16cc\LL	<	8aa\L	.
.	.	16b\	.	.	.
.	.	16cc\	.	16aa\L	.
.	.	16a\JJ	.	16ff#\JJ	.
!	!	!LO:LB:g=original	!	!	!
=189	=189	=189	=189	=189	=189
!	!LO:DY:b:t=F	!	!LO:DY:b:t=F	!LO:TX:b:i:t=rinf	!
8D\L]	f	16b\LL	f	8gg\L	.
.	.	16cc\	.	.	.
8G\	.	16dd\	.	16bb\L	.
.	.	16b\JJ	.	16ddd\JJ	.
8F#\	.	16a\LL	.	8dd\L	.
.	.	16cc\	.	.	.
8D\J	.	16a\	.	16ee\L	.
.	.	16cc\JJ	.	16ff#\JJ	.
=190	=190	=190	=190	=190	=190
8G\L	.	4d/ 4b	.	4gg\	.
8GG/J	.	.	.	.	.
4r	.	4r	.	8bb\L	p
.	.	.	.	16bb\L	.
.	.	.	.	16aa\JJ	.
=191	=191	=191	=191	=191	=191
8B\L	p	4r	.	8gg\L	.
16B\L	.	.	.	16gg\L	.
16A\JJ	.	.	.	16ff#\JJ	.
8G\L	.	8b/L	p	8ee\L	.
16G\L	.	16b/L	.	16ee\L	.
16F#\JJ	.	16a/JJ	.	16dd#X\JJ	.
=192	=192	=192	=192	=192	=192
4E\	.	8g/L	.	8ee\L	.
.	.	8g/	.	8b\J	.
8B\L	.	8f#/	.	16dd#X\LL	.
.	.	.	.	16ee\	.
8BB/J	.	8a/J	.	16ff#\	.
.	.	.	.	16dd#\JJ	.
=193	=193	=193	=193	=193	=193
4E\	.	4g/	.	16ee\LL	.
.	.	.	.	16dd#X\	.
.	.	.	.	16ee\	.
.	.	.	.	16ff#\JJ	.
4r	.	4r	.	16gg\LL	.
.	.	.	.	16ff#\	.
.	.	.	.	16gg\	.
.	.	.	.	16bb\JJ	.
=194	=194	=194	=194	=194	=194
!	!LO:DY:b:t=F	!	!	!	!
4BB/	f	8d#X/L	.	4b\ 4ff#	.
.	.	8d#/J	.	.	.
8B\L	.	4r	.	4r	.
16B\L	.	.	.	.	.
16A\JJ	.	.	.	.	.
=195	=195	=195	=195	=195	=195
!	!	!	!LO:DY:b:t=F	!	!
8G\L	.	8b/L	f	4r	.
16G\L	.	16b/L	.	.	.
16F#\JJ	.	16a/JJ	.	.	.
!	!	!	!	!	!LO:DY:b:t=F
8E\L	.	8g/L	.	8ee\L	f
8F#\J	.	8a/J	.	16ee\L	.
.	.	.	.	16dd#X\JJ	.
!LO:LB:g=original	!	!	!	!LO:LB:g=original	!
=196	=196	=196	=196	=196	=196
!	!	!LO:TX:t=P:problem:mixed beam	!	!	!
4G\	.	8b\L	.	8ee\L	.
.	.	8B/	.	8b\J	.
4A\	.	8cn/	.	16dd#X\LL	.
.	.	.	.	16ee\	.
.	.	8cc\J	.	16ff#\	.
.	.	.	.	16dd#\JJ	.
!	!	!LO:LB:g=original	!	!	!
=197	=197	=197	=197	=197	=197
!	!	!LO:N:vis=8.	!	!	!
8G\L	.	8b\	.	16ee\LL	.
.	.	.	.	16ff#\	.
8E\	.	4ee\	.	16gg\	.
.	.	.	.	16bb\JJ	.
.	.	.	.	8qqgg/	.
8B\	.	.	.	16ff#\LL	.
.	.	.	.	16ee\	.
8BB\J	.	8dd#X\	.	16ff#\	.
.	.	.	.	16gg\JJ	.
=198	=198	=198	=198	=198	=198
16r	.	16r	.	2ee\	p
(16E\LL	p	(16g/LL	p	.	.
16F#\	.	16a/	.	.	.
16G\JJ	.	16b/JJ	.	.	.
16A\LL	.	16cc/LL	.	.	.
16G\	.	16b/	.	.	.
16F#\	.	16a/	.	.	.
16E\JJ)	.	16g/JJ)	.	.	.
=199	=199	=199	=199	=199	=199
4D#X\	.	2f#/ 2a	.	16ff#\LL	.
.	.	.	.	16ccc\	.
.	.	.	.	16bb\	.
.	.	.	.	16aa\JJ	.
4BB/	.	.	.	16gg\LL	.
.	.	.	.	16ff#\	.
.	.	.	.	16ee\	.
.	.	.	.	16dd#X\JJ	.
=200	=200	=200	=200	=200	=200
16r	.	16r	.	2ee\	.
(16E\LL	.	(16g/LL	.	.	.
16F#\	.	16a/	.	.	.
16G\JJ	.	16b/JJ	.	.	.
16A\LL	.	16cc/LL	.	.	.
16G\	.	16b/	.	.	.
16F#\	.	16a/	.	.	.
16E\JJ)	.	16g/JJ)	.	.	.
=201	=201	=201	=201	=201	=201
4D#X\	.	2f#/ 2a	.	16ff#\LL	.
.	.	.	.	16ccc\	.
.	.	.	.	16bb\	.
.	.	.	.	16aa\JJ	.
4BB/	.	.	.	16gg\LL	.
.	.	.	.	16ff#\	.
.	.	.	.	16ee\	.
.	.	.	.	16dd#X\JJ	.
=202	=202	=202	=202	=202	=202
4E\	.	4g/	.	4ee\	.
4r	.	4r	.	4r	.
=203	=203	=203	=203	=203	=203
!	!LO:DY:b:t=F	!	!LO:DY:b:t=F	!	!LO:DY:b:t=F
8EE/L	f	4B/ 4g	f	4ee\	f
8E/	.	.	.	.	.
8BB/	.	4B/ 4g	.	4e/ 4b 4ee	.
8GG/J	.	.	.	.	.
=204	=204	=204	=204	=204	=204
4EE/	.	4B/ 4g	.	4e/ 4b 4ee	.
4r	.	4r	.	4r	.
==	==	==	==	==	==
*-	*-	*-	*-	*-	*-
!!!system-decoration: [(s1,s2,s3)]
!!!RDF**kern: > = above
!!!RDF**kern: < = below
!!!ENC: Mateusz Solarz
!!!END: 2022-05-24
!!!ENC: Natalia Wrzos
!!!END: 2022-07-04
